icons/repo-push-24.svg

<svg width="24" height="24" viewBox="0 0 24 24" fill="none" xmlns="http://www.w3.org/2000/svg">
<path d="M4.75 0C3.23122 0 2 1.23122 2 2.75V19.25C2 20.7688 3.23122 22 4.75 22H15.75C16.1642 22 16.5 21.6642 16.5 21.25C16.5 20.8358 16.1642 20.5 15.75 20.5H4.75C4.05964 20.5 3.5 19.9404 3.5 19.25V18C3.5 17.1716 4.17157 16.5 5 16.5H12.25C12.6642 16.5 13 16.1642 13 15.75C13 15.3358 12.6642 15 12.25 15H5C4.45357 15 3.94126 15.1461 3.5 15.4013V2.75C3.5 2.05964 4.05964 1.5 4.75 1.5H18.5V8.5C18.5 8.91421 18.8358 9.25 19.25 9.25C19.6642 9.25 20 8.91421 20 8.5V0.75C20 0.335786 19.6642 0 19.25 0H4.75Z" fill="#24292E"/>
<path d="M20 13.9028L22.2017 16.2617C22.4843 16.5645 22.9589 16.5809 23.2617 16.2983C23.5646 16.0157 23.5809 15.5411 23.2983 15.2383L19.7983 11.4883C19.6564 11.3363 19.4579 11.25 19.25 11.25C19.0421 11.25 18.8436 11.3363 18.7017 11.4883L15.2017 15.2383C14.9191 15.5411 14.9354 16.0157 15.2383 16.2983C15.5411 16.5809 16.0157 16.5645 16.2983 16.2617L18.5 13.9028V23.2499C18.5 23.6641 18.8358 23.9999 19.25 23.9999C19.6642 23.9999 20 23.6641 20 23.2499V13.9028Z" fill="#24292E"/>
</svg>

<svg xmlns="http://www.w3.org/2000/svg" width="24" height="24" viewBox="0 0 24 24"><path d="M4.75 0A2.75 2.75 0 002 2.75v16.5A2.75 2.75 0 004.75 22h11a.75.75 0 000-1.5h-11c-.69 0-1.25-.56-1.25-1.25V18A1.5 1.5 0 015 16.5h7.25a.75.75 0 000-1.5H5c-.546 0-1.059.146-1.5.401V2.75c0-.69.56-1.25 1.25-1.25H18.5v7a.75.75 0 001.5 0V.75a.75.75 0 00-.75-.75H4.75z"/><path d="M20 13.903l2.202 2.359a.75.75 0 001.096-1.024l-3.5-3.75a.75.75 0 00-1.096 0l-3.5 3.75a.75.75 0 101.096 1.024l2.202-2.36v9.348a.75.75 0 001.5 0v-9.347z"/></svg>
